src/assets/images/default.svg

<svg height="24" viewBox="0 0 24 24" width="24" xmlns="http://www.w3.org/2000/svg"><path d="m0 0h24v24h-24z" fill="none"/><path d="m15.414 5h5.594c.548 0 .992.445.992 1v14c0 .552-.455 1-.992 1h-18.016a.994.994 0 0 1 -.992-1v-14c0-.552.455-1 .992-1h5.594l-2.536-2.536 1.414-1.414 3.95 3.95h1.172l3.95-3.95 1.414 1.414zm-11.414 2v12h16v-12z"/></svg>

<svg width="24px" height="24px" viewBox="0 0 24 24" xmlns="http://www.w3.org/2000/svg">
    <g>
        <path fill="none" d="M0 0h24v24H0z"/>
        <path d="M15.414 5h5.594c.548 0 .992.445.992 1v14c0 .552-.455 1-.992 1H2.992A.994.994 0 0 1 2 20V6c0-.552.455-1 .992-1h5.594L6.05 2.464 7.464 1.05 11.414 5h1.172l3.95-3.95 1.414 1.414L15.414 5zM4 7v12h16V7H4z"/>
    </g>
</svg>
